resources/haticons/SVG/shrink.svg

<!-- Generated by IcoMoon.io -->
<svg version="1.1" xmlns="http://www.w3.org/2000/svg" width="24" height="24" viewBox="0 0 24 24">
<title>shrink</title>
<path d="M13.5 10.5h9.75l-3.75-3.75 4.5-4.5-2.25-2.25-4.5 4.5-3.75-3.75z"></path>
<path d="M13.5 13.5v9.75l3.75-3.75 4.5 4.5 2.25-2.25-4.5-4.5 3.75-3.75z"></path>
<path d="M10.5 13.5h-9.75l3.75 3.75-4.5 4.5 2.25 2.25 4.5-4.5 3.75 3.75z"></path>
<path d="M10.5 10.5v-9.75l-3.75 3.75-4.5-4.5-2.25 2.25 4.5 4.5-3.75 3.75z"></path>
</svg>

<svg xmlns="http://www.w3.org/2000/svg" width="24" height="24"><path d="M13.5 10.5h9.75L19.5 6.75l4.5-4.5L21.75 0l-4.5 4.5L13.5.75zm0 3v9.75l3.75-3.75 4.5 4.5L24 21.75l-4.5-4.5 3.75-3.75zm-3 0H.75l3.75 3.75-4.5 4.5L2.25 24l4.5-4.5 3.75 3.75zm0-3V.75L6.75 4.5 2.25 0 0 2.25l4.5 4.5L.75 10.5z"/></svg>
